icons/evolvere-blue-folders-flat-vivid-dark-fallback/apps/64/dolphin-emu.svg

<?xml version="1.0" encoding="UTF-8" standalone="no"?>
<!-- Created with Inkscape (http://www.inkscape.org/) -->

<svg
   xmlns:dc="http://purl.org/dc/elements/1.1/"
   xmlns:cc="http://creativecommons.org/ns#"
   xmlns:rdf="http://www.w3.org/1999/02/22-rdf-syntax-ns#"
   xmlns:svg="http://www.w3.org/2000/svg"
   xmlns="http://www.w3.org/2000/svg"
   xmlns:sodipodi="http://sodipodi.sourceforge.net/DTD/sodipodi-0.dtd"
   xmlns:inkscape="http://www.inkscape.org/namespaces/inkscape"
   width="64"
   height="64"
   id="svg13094"
   version="1.1"
   inkscape:version="0.91+devel r"
   sodipodi:docname="dolphin-emu.svg">
  <sodipodi:namedview
     id="base"
     pagecolor="#ffffff"
     bordercolor="#666666"
     borderopacity="1.0"
     inkscape:pageopacity="0"
     inkscape:pageshadow="2"
     inkscape:zoom="11.313709"
     inkscape:cx="29.311876"
     inkscape:cy="34.550537"
     inkscape:document-units="px"
     inkscape:current-layer="svg13094"
     showgrid="false"
     inkscape:snap-bbox="true"
     inkscape:bbox-paths="true"
     inkscape:bbox-nodes="true"
     inkscape:snap-bbox-edge-midpoints="true"
     inkscape:snap-bbox-midpoints="true"
     inkscape:object-paths="true"
     inkscape:snap-intersection-paths="true"
     inkscape:object-nodes="true"
     inkscape:snap-smooth-nodes="true"
     inkscape:snap-midpoints="true"
     inkscape:snap-object-midpoints="true"
     inkscape:snap-center="true"
     showguides="true"
     inkscape:guide-bbox="true"
     inkscape:window-width="1920"
     inkscape:window-height="1023"
     inkscape:window-x="-10"
     inkscape:window-y="35"
     inkscape:window-maximized="1"
     inkscape:snap-global="false"
     fit-margin-top="0"
     fit-margin-left="0"
     fit-margin-right="0"
     fit-margin-bottom="0"
     showborder="true"
     inkscape:showpageshadow="false"
     inkscape:snap-page="true">
    <inkscape:grid
       type="xygrid"
       id="grid3075"
       empspacing="5"
       visible="true"
       enabled="true"
       snapvisiblegridlinesonly="true"
       originx="1.6362304e-08px"
       originy="18px" />
  </sodipodi:namedview>
  <defs
     id="defs13096" />
  <metadata
     id="metadata13099">
    <rdf:RDF>
      <cc:Work
         rdf:about="">
        <dc:format>image/svg+xml</dc:format>
        <dc:type
           rdf:resource="http://purl.org/dc/dcmitype/StillImage" />
        <dc:title></dc:title>
      </cc:Work>
    </rdf:RDF>
  </metadata>
  <path
     style="color:#000000;fill:#3f5fe4;fill-opacity:1;fill-rule:nonzero;stroke:none;stroke-width:2.28571415;marker:none;visibility:visible;display:inline;overflow:visible;enable-background:accumulate"
     d="M 0 4 L 0 34 L 0 62 L 2 64 L 32 64 L 62 64 L 64 62 L 64 34 L 64 4 L 32 4 L 0 4 z "
     id="path6498" />
  <path
     style="color:#000000;fill:#7e92ff;fill-opacity:1;fill-rule:nonzero;stroke:none;marker:none;visibility:visible;display:inline;overflow:visible;enable-background:accumulate;stroke-width:2.28571415"
     d="M 2 0 L 0 1 L 0 4 L 32 4 L 64 4 L 64 1 L 62 0 L 32 0 L 2 0 z "
     id="path6502" />
  <path
     style="fill:#9baaff;fill-opacity:1;fill-rule:nonzero"
     d="M 0,3 0,6 2,4 Z"
     id="path4298"
     inkscape:connector-curvature="0"
     sodipodi:nodetypes="cccc" />
  <path
     d="M 64,6 62,4 64,3 z"
     id="path3028"
     style="fill:#5d77f1;fill-opacity:1"
     inkscape:connector-curvature="0" />
  <g
     id="g3043"
     inkscape:export-filename="folder.png"
     inkscape:export-xdpi="90"
     inkscape:export-ydpi="90"
     transform="translate(-0.62500009,0.082283)" />
  <g
     id="scalable"
     transform="matrix(1.0385892,0,0,1.0385892,1214.7222,1878.8121)"
     inkscape:label="#g3701"
     style="fill:#ffffff" />
  <path
     style="color:#000000;fill:#d8e1ff;fill-opacity:1;fill-rule:nonzero;stroke:none;stroke-width:1;marker:none;visibility:visible;display:inline;overflow:visible;enable-background:accumulate"
     d="M 56.926657,48.319497 C 51.179126,31.416341 41.15152,29.47338 41.372803,26.771911 c 0.163049,-1.960462 4.885689,-3.191585 4.885689,-3.191585 -4.780871,-1.073588 -7.873007,0.145873 -10.429409,2.100495 -6.166805,-3.296612 -24.148948,-3.314116 -25.354358,8.168593 0,0 -2.8708532,2.526431 -1.9798995,3.541671 0.8734845,0.991898 5.1244455,-2.905686 14.0864015,-2.999043 2.01484,4.737786 5.805763,6.66324 10.848685,6.604894 -2.096365,-1.318645 -4.588709,-2.287207 -4.55377,-5.94557 6.819008,0.787686 11.58241,3.570842 15.944013,6.546544 -2.701979,-3.874247 -12.653884,-12.06618 -28.469788,-8.76957 6.813184,-13.326477 33.174961,-1.977966 40.57629,15.491157 z"
     id="path3095"
     inkscape:connector-curvature="0" />
</svg>

<svg xmlns="http://www.w3.org/2000/svg" viewBox="0 0 64 64"><g color="#000"><path d="m0 4v30 28l2 2h30 30l2-2v-28-30h-32-32" fill="#3f5fe4"/><path d="m2 0l-2 1v3h32 32v-3l-2-1h-30-30" fill="#7e92ff"/></g><path d="m0 3v3l2-2" fill="#9baaff"/><path d="m64 6l-2-2 2-1z" fill="#5d77f1"/><path d="m56.927 48.32c-5.748-16.903-15.775-18.846-15.554-21.548.163-1.96 4.886-3.192 4.886-3.192-4.781-1.074-7.873.146-10.429 2.1-6.167-3.297-24.15-3.314-25.354 8.169 0 0-2.871 2.526-1.98 3.542.873.992 5.124-2.906 14.09-2.999 2.01 4.738 5.806 6.663 10.849 6.605-2.096-1.319-4.589-2.287-4.554-5.946 6.819.788 11.582 3.571 15.944 6.547-2.702-3.874-12.654-12.07-28.47-8.77 6.813-13.326 33.17-1.978 40.576 15.491" fill="#d8e1ff" color="#000"/></svg>
